src/assets/theory-inverse.svg

<?xml version="1.0" encoding="UTF-8" standalone="no"?>
<svg
   xmlns:dc="http://purl.org/dc/elements/1.1/"
   xmlns:cc="http://creativecommons.org/ns#"
   xmlns:rdf="http://www.w3.org/1999/02/22-rdf-syntax-ns#"
   xmlns:svg="http://www.w3.org/2000/svg"
   xmlns="http://www.w3.org/2000/svg"
   width="24.848255mm"
   height="24.848255mm"
   viewBox="0 0 24.848255 24.848255"
   version="1.1"
   id="svg6165">
  <defs
     id="defs6159">
    <clipPath
       clipPathUnits="userSpaceOnUse"
       id="clipPath972-1">
      <path
         d="M 0,841.89 H 595.276 V 0 H 0 Z"
         id="path970-0" />
    </clipPath>
  </defs>
  <metadata
     id="metadata6162">
    <rdf:RDF>
      <cc:Work
         rdf:about="">
        <dc:format>image/svg+xml</dc:format>
        <dc:type
           rdf:resource="http://purl.org/dc/dcmitype/StillImage" />
        <dc:title></dc:title>
      </cc:Work>
    </rdf:RDF>
  </metadata>
  <g
     style="fill:#ffffff"
     id="layer1"
     transform="translate(-316.98828,-159.84373)">
    <g
       style="fill:#ffffff"
       transform="matrix(0.35277777,0,0,-0.35277777,224.5417,372.79658)"
       id="g966-4">
      <g
         style="fill:#ffffff"
         id="g968-37"
         clip-path="url(#clipPath972-1)">
        <g
           style="fill:#ffffff"
           id="g974-1"
           transform="translate(332.4893,568.4279)">
          <path
             id="path976-3"
             transform="matrix(0.75000001,0,0,-0.75000001,-70.435997,35.217987)"
             d="M 46.957031 0 C 21.023698 0 0 21.023698 0 46.957031 C 0 72.891698 21.023698 93.914062 46.957031 93.914062 C 72.890364 93.914062 93.914062 72.891698 93.914062 46.957031 C 93.914062 21.023698 72.890364 0 46.957031 0 z M 47.394531 11.740234 C 47.98132 11.753324 48.571647 11.789443 49.164062 11.849609 C 59.962729 12.945609 67.086854 21.189833 68.492188 29.8125 C 69.56152 36.3725 68.121088 42.199234 63.482422 47.115234 C 62.302422 48.365901 61.191552 49.682234 60.074219 50.990234 C 57.380885 54.146234 56.116186 57.840318 55.992188 61.958984 C 55.938854 63.756318 55.402615 64.282397 53.613281 64.289062 C 51.394615 64.299729 49.175698 64.291016 46.957031 64.291016 C 44.737031 64.291016 42.518115 64.300443 40.300781 64.287109 C 38.647448 64.277776 38.043005 63.675042 38.013672 61.984375 C 37.943005 57.852375 36.63827 54.176958 33.960938 51.015625 C 32.791604 49.634292 31.582906 48.283641 30.378906 46.931641 C 24.453573 40.278307 23.730839 32.7485 27.076172 24.8125 C 30.549922 16.575 38.592705 11.543896 47.394531 11.740234 z M 46.939453 15.638672 C 43.997787 15.551172 41.049 16.314677 38.125 18.027344 C 31.825 21.719344 29.06301 27.453359 29.652344 34.693359 C 30.100344 40.173359 34.368271 46.258599 38.710938 47.697266 C 35.433604 44.666599 33.422849 41.183078 32.853516 36.955078 C 32.276182 32.655078 33.187177 28.67512 35.589844 25.064453 C 39.20851 19.62712 46.640365 15.519375 55.707031 18.359375 C 52.815031 16.664708 49.88112 15.726172 46.939453 15.638672 z M 53.542969 66.771484 C 53.858969 66.772818 54.182328 66.771224 54.486328 66.837891 C 55.344995 67.025891 55.85712 67.681276 55.814453 68.474609 C 55.771786 69.242609 55.15988 69.897314 54.310547 69.945312 C 53.318547 70.002646 52.320839 69.967417 51.326172 69.96875 C 49.926172 69.970083 48.526333 69.96875 47.125 69.96875 C 44.774333 69.96875 42.422932 69.978891 40.072266 69.962891 C 39.078932 69.954891 38.479823 69.545458 38.285156 68.828125 C 38.049156 67.957458 38.449552 67.172823 39.324219 66.910156 C 39.705552 66.79549 40.124057 66.777344 40.525391 66.777344 C 44.865391 66.76801 49.204302 66.768818 53.542969 66.771484 z M 53.363281 71.755859 C 53.724615 71.755859 54.090647 71.751974 54.445312 71.806641 C 55.311979 71.941307 55.843073 72.565047 55.816406 73.373047 C 55.78974 74.173047 55.216896 74.77376 54.351562 74.871094 C 54.039564 74.907094 53.72163 74.888672 53.404297 74.888672 C 51.28163 74.890005 49.157823 74.888672 47.035156 74.888672 C 44.685823 74.888672 42.335661 74.90424 39.986328 74.878906 C 38.832995 74.866906 38.212328 74.261344 38.236328 73.277344 C 38.254995 72.51601 38.65949 71.988557 39.410156 71.837891 C 39.804823 71.760557 40.217714 71.761099 40.623047 71.759766 C 44.869713 71.754432 49.116615 71.753193 53.363281 71.755859 z M 41.691406 76.767578 L 52.023438 76.767578 C 52.68477 78.279578 52.311703 79.819656 51.095703 80.847656 C 49.03037 82.590323 44.946943 82.63226 42.849609 80.933594 C 41.532276 79.86826 41.279406 78.500911 41.691406 76.767578 z "
             style="fill:#ffffff;fill-opacity:1;fill-rule:nonzero;stroke:none;stroke-width:1.33333325" />
        </g>
        <g
           style="fill:#ffffff"
           id="g978-96"
           transform="translate(303.834,589.8761)" />
        <g
           style="fill:#ffffff"
           id="g982-2"
           transform="translate(297.3965,551.1696)" />
        <g
           style="fill:#ffffff"
           id="g986-9"
           transform="translate(297.3291,547.4801)" />
        <g
           style="fill:#ffffff"
           id="g990-74"
           transform="translate(293.3213,546.0695)" />
      </g>
    </g>
  </g>
</svg>

<svg xmlns="http://www.w3.org/2000/svg" width="93.915" height="93.915" viewBox="0 0 24.848 24.848"><defs><clipPath clipPathUnits="userSpaceOnUse" id="a"><path d="M0 841.89h595.276V0H0z"/></clipPath></defs><g style="fill:#fff" clip-path="url(#a)" transform="matrix(.35278 0 0 -.35278 -92.447 212.953)"><g style="fill:#fff"><path transform="matrix(.75 0 0 -.75 262.053 603.646)" d="M46.957 0C21.024 0 0 21.024 0 46.957c0 25.935 21.024 46.957 46.957 46.957s46.957-21.022 46.957-46.957C93.914 21.024 72.89 0 46.957 0zm.438 11.74c.586.013 1.177.05 1.77.11 10.798 1.096 17.922 9.34 19.327 17.962 1.07 6.56-.37 12.387-5.01 17.303-1.18 1.25-2.29 2.567-3.408 3.875-2.693 3.156-3.958 6.85-4.082 10.969-.053 1.797-.59 2.323-2.379 2.33-2.218.01-4.437.002-6.656.002-2.22 0-4.439.01-6.656-.004-1.654-.01-2.258-.612-2.287-2.303-.071-4.132-1.376-7.807-4.053-10.968-1.17-1.382-2.378-2.732-3.582-4.084-5.925-6.654-6.648-14.184-3.303-22.12 3.474-8.237 11.517-13.268 20.319-13.072zm-.456 3.899c-2.941-.088-5.89.676-8.814 2.388-6.3 3.692-9.062 9.426-8.473 16.666.448 5.48 4.716 11.566 9.059 13.004-3.277-3.03-5.288-6.514-5.857-10.742-.578-4.3.333-8.28 2.736-11.89 3.619-5.438 11.05-9.546 20.117-6.706-2.892-1.694-5.826-2.633-8.768-2.72zm6.604 51.132c.316.002.64 0 .943.067.859.188 1.371.843 1.328 1.637a1.569 1.569 0 0 1-1.503 1.47c-.992.058-1.99.022-2.985.024h-4.201c-2.35 0-4.702.01-7.053-.006-.993-.008-1.592-.418-1.787-1.135-.236-.87.165-1.655 1.04-1.918.38-.115.8-.133 1.2-.133 4.34-.009 8.68-.008 13.018-.006zm-.18 4.985c.362 0 .728-.004 1.082.05.867.135 1.398.759 1.371 1.567-.026.8-.6 1.4-1.464 1.498-.312.036-.63.018-.948.018h-6.369c-2.35 0-4.7.015-7.049-.01-1.153-.012-1.774-.618-1.75-1.602.019-.761.423-1.288 1.174-1.44.395-.076.808-.076 1.213-.077 4.247-.006 8.494-.007 12.74-.004zm-11.672 5.012h10.332c.662 1.512.289 3.052-.927 4.08-2.066 1.742-6.15 1.784-8.246.086-1.318-1.066-1.57-2.433-1.159-4.166z" style="fill:#fff;fill-opacity:1;fill-rule:nonzero;stroke:none;stroke-width:1.33333325"/></g></g></svg>
